static/assets/images/exchanges/sovryn.svg

<svg width="274" height="256" viewBox="0 0 274 256" fill="none" xmlns="http://www.w3.org/2000/svg">
<path d="M102.53 113.499L136.993 162.476L211.447 56.8607L114.796 56.7748L97.6652 32.4975L228.614 32.5521L251.559 0H22.427L85.3723 89.1823H151.598L134.582 113.499H102.53Z" fill="white"/>
<path d="M4.44094 0.0235658H0L137.02 256L274 0.000135508H269.579L137.043 188.057L4.44094 0.0235658Z" fill="white"/>
</svg>

<svg xmlns="http://www.w3.org/2000/svg" fill="none" viewBox="0 0 274 256"><path fill="#fff" d="m102.53 113.499 34.463 48.977 74.454-105.615-96.651-.086-17.13-24.277 130.948.054L251.559 0H22.427l62.945 89.182h66.226L134.582 113.5z"/><path fill="#fff" d="M4.44.024H0L137.02 256 274 0h-4.421L137.043 188.057z"/></svg>
